48x48/apps/pycharmedu.svg

<svg xmlns="http://www.w3.org/2000/svg" width="48" height="48" version="1">
 <path style="fill:#a2e36e" d="m24 4h-18c-1.108 0-2 0.892-2 2v18h20z"/>
 <path style="fill:#2cbfeb" d="m24 4h18c1.108 0 2 0.892 2 2v18h-20z"/>
 <path style="fill:#21d789" d="m24 44h-18c-1.108 0-2-0.892-2-2v-18h20z"/>
 <path style="fill:#f7c73c" d="m24 44h18c1.108 0 2-0.892 2-2v-18h-20z"/>
 <path fill="#fff" opacity=".2" d="m6 4c-1.108 0-2 0.892-2 2v1c0-1.108 0.892-2 2-2h36c1.108 0 2 0.892 2 2v-1c0-1.108-0.892-2-2-2h-36z"/>
 <path opacity=".2" d="m6 45c-1.108 0-2-0.892-2-2v-1c0 1.108 0.892 2 2 2h36c1.108 0 2-0.892 2-2v1c0 1.108-0.892 2-2 2h-36z"/>
 <rect style="fill:#17191e" width="28" height="28" x="10" y="10"/>
 <path style="opacity:0.2;fill:none;stroke:#000000;stroke-width:2;stroke-linecap:round" d="m 16,32.9999 h 8"/>
 <path style="fill:none;stroke:#f4f4f7;stroke-width:2;stroke-linecap:round" d="m 16,32 h 8"/>
 <path style="opacity:0.2;fill:none;stroke:#000000;stroke-width:1.99999988;stroke-linecap:round;stroke-linejoin:bevel" d="m 16,20.9999 c 0,0 4.000003,0.464501 4.000003,-1.999997 C 20.000003,16.535402 16,16.999902 16,16.999902 m 9.8e-5,8.000099 V 17"/>
 <path style="fill:none;stroke:#f4f4f7;stroke-width:1.99999988;stroke-linecap:round;stroke-linejoin:bevel" d="m 16,20 c 0,0 4.000003,0.464501 4.000003,-1.999997 C 20.000003,15.535502 16,16.000002 16,16.000002 m 9.8e-5,8.000099 V 16.0001"/>
 <path style="opacity:0.2;fill:none;stroke:#000000;stroke-width:1.99999988;stroke-linecap:round;stroke-linejoin:bevel" d="m 24,24.999656 h 4.000001 M 24,20.999657 h 4.000001 M 24,16.999658 h 4.000001 m -3.999901,8.0001 v -8.000002"/>
 <path style="fill:none;stroke:#f4f4f7;stroke-width:1.99999988;stroke-linecap:round;stroke-linejoin:bevel" d="m 24,23.999999 h 4.000001 M 24,20 h 4.000001 M 24,16.000001 h 4.000001 m -3.999901,8.0001 v -8.000002"/>
</svg>

<svg xmlns="http://www.w3.org/2000/svg" width="48" height="48" version="1"><path style="fill:#a2e36e" d="M24 4H6c-1.108 0-2 .892-2 2v18h20z"/><path style="fill:#2cbfeb" d="M24 4h18c1.108 0 2 .892 2 2v18H24z"/><path style="fill:#21d789" d="M24 44H6c-1.108 0-2-.892-2-2V24h20z"/><path style="fill:#f7c73c" d="M24 44h18c1.108 0 2-.892 2-2V24H24z"/><path fill="#fff" opacity=".2" d="M6 4c-1.108 0-2 .892-2 2v1c0-1.108.892-2 2-2h36c1.108 0 2 .892 2 2V6c0-1.108-.892-2-2-2H6z"/><path opacity=".2" d="M6 45c-1.108 0-2-.892-2-2v-1c0 1.108.892 2 2 2h36c1.108 0 2-.892 2-2v1c0 1.108-.892 2-2 2H6z"/><path style="fill:#17191e" d="M10 10h28v28H10z"/><path style="opacity:.2;fill:none;stroke:#000;stroke-width:2;stroke-linecap:round" d="M16 33h8"/><path style="fill:none;stroke:#f4f4f7;stroke-width:2;stroke-linecap:round" d="M16 32h8"/><path style="opacity:.2;fill:none;stroke:#000;stroke-width:1.99999988;stroke-linecap:round;stroke-linejoin:bevel" d="M16 21s4 .464 4-2c0-2.465-4-2-4-2m0 8v-8"/><path style="fill:none;stroke:#f4f4f7;stroke-width:1.99999988;stroke-linecap:round;stroke-linejoin:bevel" d="M16 20s4 .465 4-2c0-2.464-4-2-4-2m0 8v-8"/><path style="opacity:.2;fill:none;stroke:#000;stroke-width:1.99999988;stroke-linecap:round;stroke-linejoin:bevel" d="M24 25h4m-4-4h4m-4-4h4m-4 8v-8"/><path style="fill:none;stroke:#f4f4f7;stroke-width:1.99999988;stroke-linecap:round;stroke-linejoin:bevel" d="M24 24h4m-4-4h4m-4-4h4m-4 8v-8"/></svg>
